icons/.icons/Papirus/32x32/mimetypes/application-vnd.google-apps.form.svg

<svg xmlns="http://www.w3.org/2000/svg" width="32" height="32" version="1.1">
 <path style="opacity:0.2" d="M 7.25,5 C 6.5575,5 6,5.5575 6,6.25 v 22.5 C 6,29.442 6.5575,30 7.25,30 h 17.5 C 25.442,30 26,29.442 26,28.75 V 13 L 19.125,11.875 18,5 Z"/>
 <path style="fill:#13a553" d="M 7.25,4 C 6.5575,4 6,4.5575 6,5.25 V 27.75 C 6,28.442 6.5575,29 7.25,29 H 24.75 C 25.442,29 26,28.442 26,27.75 V 12 L 19.125,10.875 18,4 Z"/>
 <path style="opacity:0.2" d="m 18,5 v 6.667 C 18,12.403 18.597,13 19.333,13 H 26 L 18,4.9997 Z"/>
 <path style="fill:#70c795" d="M 18,4 V 10.667 C 18,11.403 18.597,12 19.333,12 H 26 L 18,3.9997 Z"/>
 <path fill="#ffffff" opacity=".2" d="m7.25 4c-0.6925 0-1.25 0.5575-1.25 1.25v1c0-0.6925 0.5575-1.25 1.25-1.25h10.75v-1z"/>
 <path style="fill:#ffffff" d="M 10 17 L 10 18 L 11 18 L 11 17 L 10 17 z M 12 17 L 12 18 L 22 18 L 22 17 L 12 17 z M 10 19 L 10 20 L 11 20 L 11 19 L 10 19 z M 12 19 L 12 20 L 22 20 L 22 19 L 12 19 z M 10 21 L 10 22 L 11 22 L 11 21 L 10 21 z M 12 21 L 12 22 L 22 22 L 22 21 L 12 21 z M 10 23 L 10 24 L 11 24 L 11 23 L 10 23 z M 12 23 L 12 24 L 22 24 L 22 23 L 12 23 z"/>
 <path style="opacity:0.2" d="m 10,18 v 1 h 1 v -1 z m 2,0 v 1 h 10 v -1 z m -2,2 v 1 h 1 v -1 z m 2,0 v 1 h 10 v -1 z m -2,2 v 1 h 1 v -1 z m 2,0 v 1 h 10 v -1 z m -2,2 v 1 h 1 v -1 z m 2,0 v 1 h 10 v -1 z"/>
</svg>

<svg xmlns="http://www.w3.org/2000/svg" width="32" height="32" version="1.1">
 <path style="opacity:0.2" d="M 7.25,5 C 6.5575,5 6,5.5575 6,6.25 v 22.5 C 6,29.442 6.5575,30 7.25,30 h 17.5 C 25.442,30 26,29.442 26,28.75 V 13 L 19.125,11.875 18,5 Z"/>
 <path style="fill:#764ebf" d="M 7.25,4 C 6.5575,4 6,4.5575 6,5.25 V 27.75 C 6,28.442 6.5575,29 7.25,29 H 24.75 C 25.442,29 26,28.442 26,27.75 V 12 L 19.125,10.875 18,4 Z"/>
 <path style="opacity:0.1" d="M 10,18 V 19 H 11 V 18 Z M 12,18 V 19 H 22 V 18 Z M 10,21 V 22 H 11 V 21 Z M 12,21 V 22 H 22 V 21 Z M 10,24 V 25 H 11 V 24 Z M 12,24 V 25 H 22 V 24 Z"/>
 <path style="opacity:0.2" d="m 18,5 v 6.667 C 18,12.403 18.597,13 19.333,13 H 26 L 18,4.9997 Z"/>
 <path style="fill:#b7a2dd" d="M 18,4 V 10.667 C 18,11.403 18.597,12 19.333,12 H 26 L 18,3.9997 Z"/>
 <path fill="#ffffff" opacity=".2" d="m7.25 4c-0.6925 0-1.25 0.5575-1.25 1.25v1c0-0.6925 0.5575-1.25 1.25-1.25h10.75v-1z"/>
 <path style="fill:#ffffff" d="M 10 17 L 10 18 L 11 18 L 11 17 L 10 17 z M 12 17 L 12 18 L 22 18 L 22 17 L 12 17 z M 10 20 L 10 21 L 11 21 L 11 20 L 10 20 z M 12 20 L 12 21 L 22 21 L 22 20 L 12 20 z M 10 23 L 10 24 L 11 24 L 11 23 L 10 23 z M 12 23 L 12 24 L 22 24 L 22 23 L 12 23 z"/>
</svg>
